src/assets/chat-icon-grey.svg

<svg width="29" height="29" viewBox="0 0 29 29" fill="none" xmlns="http://www.w3.org/2000/svg">
<path d="M8.60538 17.7951V8.44237H3.40413C1.8985 8.44237 0.666626 9.80003 0.666626 11.4594V20.5104C0.666626 22.1698 1.8985 23.5274 3.40413 23.5274H4.77288V28.053L8.87913 23.5274H15.7229C17.2285 23.5274 18.4604 22.1698 18.4604 20.5104V17.7649C18.3704 17.7862 18.2786 17.7968 18.1866 17.7966H8.60538V17.7951ZM25.3041 0.899841H12.9854C11.4798 0.899841 10.2479 2.2575 10.2479 3.91685V15.9849H19.8291L23.9354 20.5104V15.9849H25.3041C26.8097 15.9849 28.0416 14.6288 28.0416 12.9679V3.91685C28.0416 2.2575 26.8097 0.899841 25.3041 0.899841Z" fill="#CACACA"/>
</svg>

<svg width="29" height="29" fill="none" xmlns="http://www.w3.org/2000/svg"><path d="M8.605 17.795V8.442h-5.2C1.898 8.442.666 9.8.666 11.46v9.051c0 1.66 1.232 3.017 2.737 3.017h1.369v4.526l4.106-4.526h6.844c1.505 0 2.737-1.357 2.737-3.017v-2.745c-.09.021-.181.032-.273.032H8.605v-.002zM25.305.9h-12.32c-1.505 0-2.737 1.357-2.737 3.017v12.068h9.581l4.106 4.525v-4.525h1.37c1.505 0 2.737-1.356 2.737-3.017V3.917C28.042 2.257 26.81.9 25.304.9z" fill="#CACACA"/></svg>
